X:1
T:Title
%%score { ( 1 4 ) | ( 2 3 ) }
L:1/8
Q:1/4=100
M:6/8
K:Eb
V:1 treble nm="Grand Piano"
V:4 treble 
V:2 bass 
V:3 bass 
V:1
 B2 B B2 A | G2 G [DG]2 [DF] | E2 E [DF][CE][DF] | [EG]3 [EB]3 | [GB]2 [GB] [Ge]2 [Fd] | %5
w: E.~H.~Stokes * * *|||||
 [Ee]2 [Ac] [GB]2 G | F2 B cd[Ec] | [DB]3 [DB]3 | B2 c B3 | z3 [DA]3 | G2 G GFE | [DB]3 [DF]3 | %12
w: |||||||
 [EG]2 [FA] [GB]3 | e2 d c3 | B2 c BG[=A,E] | [A,DF]3 [G,E]3 |] %16
w: ||||
V:2
 [E,G,E]2 [E,G,E] [E,G,E]2 [E,CE] | [E,B,E]2 [E,B,E] [B,,B,]2 [B,,A,] | %2
 [C,G,]2 [C,G,] [B,,B,]2 [B,,B,] | [E,B,]3 [E,G,]3 | [E,E]2 [E,E] [E,B,]2 [A,B,] | %5
 [G,B,]2 [E,E] [E,E]2 [E,B,E] | [F,B,D]2 [F,B,D] EF[F,,F,] | [B,,F,]3 [B,,A,]3 | %8
 [E,G,E]2 [E,A,E] [E,G,E]3 | [B,,F,]2 [B,,F,] .[B,,F,]3 | z3 .B,3 | [B,,F,]3 [B,,B,]3 | %12
 [E,B,]2 [E,B,] [E,E]3 | [G,B,E]2 [G,B,E] [A,E]3 | [E,G,E]2 [E,A,E] [E,E]-[E,B,E]C, | B,,3 E,3 |] %16
V:3
 x6 | x6 | x6 | x6 | x6 | x6 | z3 .[F,=A,]3 | x6 | x6 | x6 | [E,B,E]2 [E,B,E] [E,E]-[E,A,E][E,G,] | %11
 x6 | x6 | x6 | z3 .G,3 | x6 |] %16
V:4
 x6 | x6 | x6 | x6 | x6 | x6 | x6 | x6 | x6 | [DA]2 [DB] z2 B, | x6 | x6 | x6 | x6 | x6 | x6 |] %16

